assets/White small square/Flat/white_small_square_flat.svg

<svg width="32" height="32" viewBox="0 0 32 32" fill="none" xmlns="http://www.w3.org/2000/svg">
<path d="M11.9722 9.5C10.5915 9.5 9.47217 10.6193 9.47217 12V20C9.47217 21.3807 10.5915 22.5 11.9722 22.5H19.9722C21.3529 22.5 22.4722 21.3807 22.4722 20V12C22.4722 10.6193 21.3529 9.5 19.9722 9.5H11.9722Z" fill="#9B9B9B"/>
<path d="M10.4722 12C10.4722 11.1716 11.1437 10.5 11.9722 10.5H19.9722C20.8006 10.5 21.4722 11.1716 21.4722 12V20C21.4722 20.8284 20.8006 21.5 19.9722 21.5H11.9722C11.1437 21.5 10.4722 20.8284 10.4722 20V12Z" fill="white"/>
</svg>

<svg xmlns="http://www.w3.org/2000/svg" width="32" height="32" fill="none"><path fill="#9B9B9B" d="M11.972 9.5a2.5 2.5 0 0 0-2.5 2.5v8a2.5 2.5 0 0 0 2.5 2.5h8a2.5 2.5 0 0 0 2.5-2.5v-8a2.5 2.5 0 0 0-2.5-2.5h-8Z"/><path fill="#fff" d="M10.472 12a1.5 1.5 0 0 1 1.5-1.5h8a1.5 1.5 0 0 1 1.5 1.5v8a1.5 1.5 0 0 1-1.5 1.5h-8a1.5 1.5 0 0 1-1.5-1.5v-8Z"/></svg>
